!!!OTL: BLUEHE LIEBES VEILCHEN DAS ICH SELBST ERZOG
!!!ARE: Europa, Mitteleuropa, Deutschland
!!!SCT: B0371
!!!YEM: Copyright 1995, estate of Helmut Schaffrath.
**kern
*ICvox
*Ivox
*M2/4
*k[f#]
*G:
=1
{8.dd
16cc
8b
8b
=2
4cc
4a}
=3
{8b
8g
8a
8f#
=4
4g
4r}
=5
{8.a
16b
8cc
8b
=6
4b
4a}
=7
{8b
8b
8cc#
8cc#
=8
4dd
4r}
=9
{8.a
16g
8f#
8a
=10
4cc
4a}
=11
{8.b
16a
8g
8b
=12
4dd
4b}
=13
{8.dd
16cc
8b
8b
=14
4cc
4r}
=15
{8b
8g
8a
8f#
=16
4g
4r}
==
!!!AGN: Liebes - Lied, Liebes - Lust
!!!ONB: ESAC (Essen Associative Code) Database: BOEHME
!!!AMT: simple duple
!!!AIN: vox
!!!EED: Helmut Schaffrath
!!!EEV: 1.0
*-
